static/images/navalias-logo.svg

<svg height="1024" viewBox="0 0 966 1024" width="966" xmlns="http://www.w3.org/2000/svg" xmlns:xlink="http://www.w3.org/1999/xlink"><linearGradient id="a" x1="76.976119%" x2="23.493911%" y1="17.743928%" y2="81.97411%"><stop offset="0" stop-color="#0a87f5"/><stop offset="1" stop-color="#dc1eb9"/></linearGradient><g fill="none"><path d="m351.336988 506.587082c43.519859-168.666518 89.854435-336.683486 131.425644-505.78303817 46.190232 171.76992417 89.132713 344.47808817 135.467289 516.17584017 7.650257 29.01324 35.003535 53.046595 66.181942 48.932777 58.964718-4.330334 109.629628-39.117352 159.933677-66.903664-107.608805 108.907906-215.939333 217.382779-324.702895 325.208101-6.423329-175.017675-15.80572-349.963178-21.796015-525.053026-6.062468-92.019602-5.557263-184.472238-14.578792-276.3474958-9.67108 125.4353478-11.403214 251.4480748-18.403921 377.0999398-5.196401 141.457585-13.496208 282.842997-18.476093 424.300582-108.907905-107.608806-216.877572-216.228023-323.909-325.641134 51.964011 28.652378 104.505399 65.676736 165.923973 67.264525 33.343574 1.371272 56.871723-29.229756 62.934191-59.253407z" fill="url(#a)"/><path d="m103.569698 244.313172c79.028599-102.556749 201.360542-169.4604128 330.04364-182.8122767-7.43374 27.6419669-15.083997 55.2839337-21.435154 83.2145897-99.66986 19.630848-192.26684 75.49216-252.169797 158.057199-60.0473012 80.688562-88.0501292 184.760928-75.5643322 284.647304 13.063175 115.331235 79.4616332 223.084385 176.2446032 287.028987 95.123009 64.666325 218.681879 84.080657 329.321919 53.118767 102.340232-27.930656 191.905978-98.587276 243.436956-191.256429 52.830077-93.318702 65.82108-208.361249 34.065296-310.917998-41.066003-142.107135-167.006557-253.613241-312.289271-280.02828-7.000707-28.002828-14.50662-55.9334839-21.507327-83.9363119 108.04184 11.5475579 211.969861 59.9029569 288.905466 136.7663899 77.7295 76.286054 128.105721 179.853215 139.653279 288.111571 14.001414 115.83644-16.599615 236.364076-83.936312 331.63143-72.172237 103.278471-186.060027 176.677636-310.484964 197.824106-130.054372 23.09511-269.274617-9.02153-374.429567-89.349234-123.7032145-91.081363-195.44241834-244.230851-193.34942346-396.947305 5.41291779-102.412404 39.47821376-204.319603 103.49498846-285.152509z" fill="#e6e6e6"/></g></svg>

<?xml version="1.0" encoding="UTF-8"?>
<svg width="966px" height="1024px" viewBox="0 0 966 1024" version="1.1" xmlns="http://www.w3.org/2000/svg" xmlns:xlink="http://www.w3.org/1999/xlink">
    <!-- Generator: Sketch 63.1 (92452) - https://sketch.com -->
    <title>navalias-logo</title>
    <desc>Created with Sketch.</desc>
    <defs>
        <linearGradient x1="76.9761191%" y1="17.7439283%" x2="23.493911%" y2="81.9741102%" id="linearGradient-1">
            <stop stop-color="#0A87F5" offset="0%"></stop>
            <stop stop-color="#DC1EB9" offset="100%"></stop>
        </linearGradient>
    </defs>
    <g id="Page-1" stroke="none" stroke-width="1" fill="none" fill-rule="evenodd">
        <g id="Artboard" transform="translate(-50.000000, -26.000000)" fill-rule="nonzero">
            <g id="navalias-logo" transform="translate(50.000000, 26.000000)">
                <path d="M351.336988,506.587082 C394.856847,337.920564 441.191423,169.903596 482.762632,0.80404383 C528.952864,172.573968 571.895345,345.282132 618.229921,516.979884 C625.880178,545.993124 653.233456,570.026479 684.411863,565.912661 C743.376581,561.582327 794.041491,526.795309 844.34554,499.008997 C736.736735,607.916903 628.406207,716.391776 519.642645,824.217098 C513.219316,649.199423 503.836925,474.25392 497.84663,299.164072 C491.784162,207.14447 492.289367,114.691834 483.267838,22.8165762 C473.596758,148.251924 471.864624,274.264651 464.863917,399.916516 C459.667516,541.374101 451.367709,682.759513 446.387824,824.217098 C337.479919,716.608292 229.510252,607.989075 122.478824,498.575964 C174.442835,527.228342 226.984223,564.2527 288.402797,565.840489 C321.746371,567.211761 345.27452,536.610733 351.336988,506.587082 Z" id="Path" fill="url(#linearGradient-1)"></path>
                <path d="M103.569698,244.313172 C182.598297,141.756423 304.93024,74.8527592 433.613338,61.5008953 C426.179598,89.1428622 418.529341,116.784829 412.178184,144.715485 C312.508324,164.346333 219.911344,220.207645 160.008387,302.772684 C99.9610858,383.461246 71.9582578,487.533612 84.4440548,587.419988 C97.5072298,702.751223 163.905688,810.504373 260.688658,874.448975 C355.811667,939.1153 479.370537,958.529632 590.010577,927.567742 C692.350809,899.637086 781.916555,828.980466 833.447533,736.311313 C886.27761,642.992611 899.268613,527.950064 867.512829,425.393315 C826.446826,283.28618 700.506272,171.780074 555.223558,145.365035 C548.222851,117.362207 540.716938,89.4315511 533.716231,61.4287231 C641.758071,72.976281 745.686092,121.33168 822.621697,198.195113 C900.351197,274.481167 950.727418,378.048328 962.274976,486.306684 C976.27639,602.143124 945.675361,722.67076 878.338664,817.938114 C806.166427,921.216585 692.278637,994.61575 567.8537,1015.76222 C437.799328,1038.85733 298.579083,1006.74069 193.424133,926.412986 C69.7209185,835.331623 -2.01828534,682.182135 0.0747095424,529.465681 C5.48762733,427.053277 39.5529233,325.146078 103.569698,244.313172 L103.569698,244.313172 Z" id="Path" fill="#E6E6E6"></path>
            </g>
        </g>
    </g>
</svg>
